!!!COM: Scriabin, Alexander
!!!OTL@@FR: Prélude
!!!OTL@@EN: Prelude
!!!OPR@@FR: 24 Préludes
!!!OPR@@EN: 24 Preludes
!!!OPS: 11
!!!ONM: 2
!!!ODT: 1895
!!!AGN: Prelude
**kern	**kern	**dynam
*staff2	*staff1	*staff1/2
*Ipiano	*Ipiano	*
*clefG2	*clefG2	*
*k[]	*k[]	*
*a:	*a:	*
*M3/4	*M3/4	*
=1	=1	=1
*^	*	*
[2.a	4B	4r	.
.	4c	8r	.
.	.	8ee	.
.	4d	8ffL	.
.	.	8cccJ	.
=2	=2	=2	=2
4a]	4d#X	4.bb	.
*clefF4	*	*	*
4rc	4F	.	.
.	.	8aa	.
4rc	4BB	4a	.
=3	=3	=3	=3
4rc	4EE	8r	.
.	.	8dd	.
*clefG2	*	*	*
2a	4B	8ggL	.
.	.	8ffJ	.
.	4d	4b	.
=4	=4	=4	=4
4a	2d	8r	.
.	.	8b	.
4g#X	.	8ffL	.
.	.	8eeJ	.
4e	4c	4a	.
*clefF4	*	*	*
=5	=5	=5	=5
[2.e	4F#X	4r	.
.	4G	8r	.
.	.	8b	.
.	4A	8ccL	.
.	.	8ggJ	.
=6	=6	=6	=6
4e]	4A#X	4.ff#X	.
4rc	4C	.	.
.	.	8ee	.
4rc	4FF#X	4e	.
=7	=7	=7	=7
4rc	4BBB 4BB	8r	.
.	.	8a	.
2e	4F#X	8ddL	.
.	.	8ccJ	.
.	4A	4f#X	.
=8	=8	=8	=8
4d#X	2A	8r	.
.	.	8fn	.
2dn	.	8ccL	.
.	.	8bJ	.
.	4G#X	8eL	.
.	.	8b-XJ	.
=9	=9	=9	=9
2.c#X 2.e	4Gn	4r	.
.	4A	8r	.
.	.	8e	.
.	4G	8aL	.
.	.	8cc#XJ	.
=10	=10	=10	=10
2.ryy	4F	2.d 2.b-X 2.dd	.
.	4B-X 4f	.	.
.	4F	.	.
=11	=11	=11	=11
2.B-X 2.g	4E	4r	.
.	4F	8r	.
.	.	8g	.
.	4E	8b-XL	.
.	.	8ddJ	.
=12	=12	=12	=12
2.ryy	4D	2.f 2.b-X 2.ff	.
.	4B-X 4f	.	.
.	4D	.	.
=13	=13	=13	=13
*	*	*^	*
2.ryy	4C	4raa	4rc	.
.	4F 4c 4f	4ff	[2a	.
.	4C	4ee	.	.
=14	=14	=14	=14	=14
2.ryy	4BB	4dd#X	4a]	.
.	4F#X 4d#X 4a	4ccc	4dd#	.
.	4r	4bb	4rc	.
*	*	*v	*v	*
=15	=15	=15	=15
4rc	4Fn	4.ddn	.
2a	4B	.	.
.	.	8dd	.
.	4d	8eeL	.
.	.	8ffJ	.
=16	=16	=16	=16
4rc	4E	8ccL	.
.	.	8a#XJ	.
*clefG2	*	*	*
4an	2d	8b	.
.	.	4ff	.
4g#X	.	.	.
.	.	8ee	.
=17	=17	=17	=17
[2.a	4B	4r	.
.	4c	8r	.
.	.	8ee	.
.	4d	8ffL	.
.	.	8cccJ	.
=18	=18	=18	=18
4a]	4d#X	4.bb	.
*clefF4	*	*	*
4rc	4F	.	.
.	.	8aa	.
4rc	4BB	4a	.
=19	=19	=19	=19
4rc	4EE	8r	.
.	.	8dd	.
*clefG2	*	*	*
2a	4B	8ggL	.
.	.	8ffJ	.
.	4c	4cc	.
=20	=20	=20	=20
2a	2.d	8r	.
.	.	8cc	.
.	.	8ffL	.
.	.	8eeJ	.
[4g#X	.	4b	.
=21	=21	=21	=21
4g#]	4d#X	4r	.
[2g#X	4B	8r	.
.	.	8dd#X	.
.	4c#X	8eeL	.
.	.	8bbJ	.
=22	=22	=22	=22
4g#]	4c##X	4.aa#X	.
*clefF4	*	*	*
4rc	4E	.	.
.	.	8gg#X	.
4rc	4AA#X	4g#X	.
=23	=23	=23	=23
4D#X	4DD#X	8r	.
.	.	8cc#X	.
*clefG2	*	*	*
2g#X	4A#X	8ff#XL	.
.	.	8eeJ	.
.	4B	4b	.
=24	=24	=24	=24
2g#X	2.c#X	8r	.
.	.	8b	.
.	.	8eeL	.
.	.	8dd#XJ	.
4f##X	.	4a#X	.
*clefF4	*	*	*
=25	=25	=25	=25
2.F##X 2.d#X	4C#X	4r	.
.	4D#X	8r	.
.	.	8a#X	.
.	4C#	8dd#XL	.
.	.	8ff##XJ	.
=26	=26	=26	=26
2.ryy	4Cn	2.a#X 2.ee 2.aa#X	.
.	4G 4e	.	.
.	4C	.	.
=27	=27	=27	=27
2.G 2.e	4BB	4r	.
.	4C	8r	.
.	.	8g	.
.	4BB	8bL	.
.	.	8eeJ	.
=28	=28	=28	=28
2.ryy	4AA	2.g 2.cc 2.gg	.
.	4E 4c	.	.
.	4AA	.	.
=29	=29	=29	=29
*	*	*^	*
2.ryy	4GG	4raa	4rc	.
.	4C 4G 4c	4cc	[2e	.
.	4GG	4b	.	.
=30	=30	=30	=30	=30
2.ryy	4FF#X	4a#X	4e]	.
.	4C#X 4A#X 4e	4gg	4a#	.
.	4r	4ff#X	4rc	.
*	*	*v	*v	*
=31	=31	=31	=31
4rc	4C	4.an	.
2e	4F#X	.	.
.	.	8a	.
.	4A	8bL	.
.	.	8ccJ	.
=32	=32	=32	=32
2.ryy	4BB 4A 4d#X	8bL	.
.	.	8gJ	.
.	4G 4B	8f#XL	.
.	.	8d#XJ	.
.	4r	8f#L	.
.	.	8eJ	.
=33	=33	=33	=33
*	*^	*	*
2.ryy	[2.B	4E\	8r	.
.	.	.	8f#XL	.
.	.	4D\	8a	.
.	.	.	8g	.
.	.	[4C#X\	8b	.
.	.	.	8eeJ	.
=34	=34	=34	=34	=34
4g	2.B]	2.C#\]	8ccc#XL	.
.	.	.	8bbJ	.
4e	.	.	8r	.
.	.	.	8ff#X	.
4rc	.	.	8aaL	.
.	.	.	8ggJ	.
=35	=35	=35	=35	=35
*	*	*	*^	*
2.ryy	4rEE	4E\	2ff#X	2.g	.
.	8rEE	4D\	.	.	.
.	8G	.	.	.	.
.	8A#XL	[4C#X/	4ee	.	.
.	[8BJ	.	.	.	.
=36	=36	=36	=36	=36	=36
4.g	2.B]	2.C#/]	4dd#X	2.b	.
.	.	.	4ee	.	.
8f#X	.	.	.	.	.
8f#L	.	.	4gg	.	.
8eJ	.	.	.	.	.
*	*	*	*v	*v	*
=37	=37	=37	=37	=37
4d	2B	2.D\	8ff#XL	.
.	.	.	8aa	.
[2g	.	.	8gg	.
.	.	.	8ddJ	.
.	4B-X	.	[4dd#X	.
=38	=38	=38	=38	=38
4g]	4A	2.D\	8dd#L]	.
.	.	.	8ff#X	.
4g	2c	.	8ee	.
.	.	.	8aJ	.
4f#X	.	.	[4b	.
*v	*v	*v	*	*
=39	=39	=39
4GG	8bL]	.
.	8dd	.
4D 4B 4d	8f#X	.
.	8g	.
4r	8a	.
.	8bJ	.
=40	=40	=40
2.r	8cc#XL	.
.	8dd	.
.	8ee	.
.	8dd	.
.	8ff#X	.
.	8ggJ	.
=41	=41	=41
*^	*	*
*	*^	*	*
2.ryy	[2.d	4G\	8r	.
.	.	.	8aL	.
.	.	4F\	8cc	.
.	.	.	8b-X	.
.	.	[4E\	8dd	.
.	.	.	8ggJ	.
=42	=42	=42	=42	=42
4b-X	2.d]	2.E\]	8eeeL	.
.	.	.	8ddd	.
2g	.	.	8bb-X	.
.	.	.	8aa	.
.	.	.	8ccc	.
.	.	.	8bb-J	.
*	*v	*v	*	*
=43	=43	=43	=43
*	*	*^	*
4rc	4G	2aa	2.b-X	.
8rc	4F	.	.	.
8B-X	.	.	.	.
8c#XL	4E	4gg	.	.
8dJ	.	.	.	.
*v	*v	*	*	*
*clefG2	*	*	*
=44	=44	=44	=44
8b-XL	4ff#X	2.dd	.
8a	.	.	.
8cc	4.gg	.	.
8b-	.	.	.
8a	.	.	.
8gJ	8bb-X	.	.
*	*v	*v	*
=45	=45	=45
*^	*	*
*	*^	*	*
4f	2d	2.F/	8aaL	.
.	.	.	8ccc	.
[2b-X	.	.	8bb-X	.
.	.	.	8ff	.
.	4d-X	.	8ff#X	.
.	.	.	8ggJ	.
=46	=46	=46	=46	=46
4b-]	4c	2.F/	8aaL	.
.	.	.	8gg	.
4b-X	2e-X	.	8cc	.
.	.	.	8dd	.
4a	.	.	8ff	.
.	.	.	8ddJ	.
*v	*v	*v	*	*
*clefF4	*	*
=47	=47	=47
*^	*	*
4rc	2BB-X	8aL	.
.	.	8b-X	.
4F 4d 4f	.	8cc	.
.	.	8b-	.
4rc	4rEE	8dd	.
.	.	8aJ	.
*v	*v	*	*
=48	=48	=48
4E	8ffL	.
.	8g#X	.
4d 4g#X	8bbn	.
.	8dd#X	.
4r	8ff	.
.	8eeJ	.
*clefG2	*	*
=49	=49	=49
*^	*	*
[2.a	4B	4r	.
.	4c	8r	.
.	.	8ee	.
.	4d	8ffL	.
.	.	8cccJ	.
=50	=50	=50	=50
4a]	4d#X	4.bb	.
*clefF4	*	*	*
4rc	4F	.	.
.	.	8aa	.
4rc	4BB	4a	.
=51	=51	=51	=51
4rc	4EE	8r	.
.	.	8dd	.
*clefG2	*	*	*
2a	4B	8ggL	.
.	.	8ffJ	.
.	4d	4b	.
=52	=52	=52	=52
4g#X	2d	8r	.
.	.	8b-X	.
2gn	.	8ffL	.
.	.	8eeJ	.
.	4c#X	4a	.
*clefF4	*	*	*
=53	=53	=53	=53
[2.d	4E	4r	.
.	4F	8r	.
.	.	8a	.
.	4G	8b-XL	.
.	.	8ffJ	.
=54	=54	=54	=54
4d]	4G#X	4.ee	.
4rc	4BB-X	.	.
.	.	8dd	.
4rc	4EE	4d	.
=55	=55	=55	=55
4rc	4AAA 4AA	8r	.
.	.	8g	.
2d	4E	8ccL	.
.	.	8b-XJ	.
.	4G	4e	.
=56	=56	=56	=56
4c#X	2G	8r	.
.	.	8e-X	.
2cn	.	8b-XL	.
.	.	8aJ	.
.	4F#X	8dL	.
.	.	8a-XJ	.
=57	=57	=57	=57
2.B 2.d	4Fn	4r	.
.	4G	8r	.
.	.	8d	.
.	4F	8gL	.
.	.	8bJ	.
=58	=58	=58	=58
2.ryy	4E	2.d 2.g#X 2.dd	.
.	4B 4e	.	.
.	4E	.	.
=59	=59	=59	=59
2.G#X 2.B	4D	4r	.
.	4E	8r	.
.	.	8g#X	.
.	4D	8bL	.
.	.	8eeJ	.
=60	=60	=60	=60
2.ryy	4D-X	2.g#X 2.ff	.
.	4F 4B 4f	.	.
.	4D-	.	.
=61	=61	=61	=61
*	*	*^	*
2.ryy	4C	4raa	4rc	.
.	4F 4c 4f	4ff	[2a	.
.	4C	4ee	.	.
=62	=62	=62	=62	=62
2.ryy	4BB	4dd#X	4a]	.
.	4F#X 4d#X 4a	4ccc	2dd#	.
.	4r	4bb	.	.
*	*	*v	*v	*
=63	=63	=63	=63
2.ryy	4Fn	4.ddn	.
.	4B 4a	.	.
.	.	8dd	.
.	4r	8eeL	.
.	.	8cc#XJ	.
=64	=64	=64	=64
*	*	*^	*
2.ryy	4r	8.ddL	4rc	.
.	.	16bbJk	.	.
.	4r	4bb	4rc	.
.	4F 4B	[4dd#X	[4a	.
=65	=65	=65	=65	=65
2.ryy	4.E 4.c	4dd#]	2a]	.
.	.	8ee	.	.
.	8E	8raa	.	.
.	8FL	4d 4gn	4rc	.
.	8cJ	.	.	.
*	*	*v	*v	*
=66	=66	=66	=66
2.ryy	4.B	4d 4g#X	.
.	.	4d 4a	.
.	8A	.	.
.	4BB	4d 4a 4ff	.
=67	=67	=67	=67
*	*	*^	*
4rc	4EE	4raa	8rc	.
.	.	.	[8a	.
4c	4E 4d#X	8ggL	4a]	.
.	.	8ffJ	.	.
8cL	4E 4dn	[4g#X	4rc	.
8BJ	.	.	.	.
*	*	*v	*v	*
=68	=68	=68	=68
2.ryy	4AAA	8g#L]	.
.	.	8aJ	.
.	2AA 2E 2A	2c 2e 2cc	.
*v	*v	*	*
==	==	==
*-	*-	*-
!!!system-decoration: {(*)}
!!!ENC: Bryan Jacob Bell
!!!END: November 2021 to April 2022
!!!PED: Günter Philipp
!!!PTL: Ausgewählte Klavierwerke (Edition Peters)
